;FLAVOR:Marlin
;TIME:3707
;Filament used: 7.19811m
;Layer height: 0.4
;MINX:-62.8
;MINY:-52.8
;MINZ:0.3
;MAXX:62.8
;MAXY:52.8
;MAXZ:5.1
;TARGET_MACHINE.NAME:Unknown
;Generated with Cura_SteamEngine 5.6.0
M104 S230
M105
M109 S230
M82 ;absolute extrusion mode
G28 ;Home
G1 Z15.0 F6000 ;Move the platform down 15mm
;Prime the extruder
G92 E0
G1 F200 E3
G92 E0
G92 E0
G92 E0
G1 F1500 E-0.5
;LAYER_COUNT:13
;LAYER:0
M107
G0 F3600 X7.682 Y-47.8 Z0.3
;TYPE:SKIRT
G1 F1500 E0
G1 F1800 X8.666 Y-49.55 E0.10016
G1 X9.357 Y-50.433 E0.1561
G1 X10.734 Y-51.542 E0.24431
G1 X12.708 Y-52.526 E0.35435
G1 X14.231 Y-52.748 E0.43114
G1 X50.623 Y-52.8 E2.24674
G1 X52.676 Y-52.377 E2.35132
G1 X54.55 Y-51.319 E2.45868
G1 X55.433 Y-50.628 E2.51462
G1 X56.542 Y-49.251 E2.60283
G1 X57.526 Y-47.277 E2.71287
G1 X57.748 Y-45.754 E2.78966
G1 X57.797 Y-22.304 E3.95959
G1 X59.55 Y-21.319 E4.0599
G1 X60.433 Y-20.628 E4.11584
G1 X61.542 Y-19.251 E4.20405
G1 X62.526 Y-17.277 E4.31409
G1 X62.748 Y-15.754 E4.39088
G1 X62.8 Y15.623 E5.95628
G1 X62.378 Y17.672 E6.06066
G1 X61.357 Y19.493 E6.16481
G1 X60.629 Y20.43 E6.22401
G1 X59.244 Y21.544 E6.31269
G1 X57.8 Y22.262 E6.39314
G1 X57.8 Y45.623 E7.55863
G1 X57.377 Y47.676 E7.6632
G1 X56.319 Y49.55 E7.77057
G1 X55.628 Y50.433 E7.82651
G1 X54.251 Y51.542 E7.91471
G1 X52.277 Y52.526 E8.02476
G1 X50.754 Y52.748 E8.10154
G1 X14.377 Y52.8 E9.9164
G1 X12.328 Y52.378 E10.02077
G1 X10.507 Y51.357 E10.12493
G1 X9.57 Y50.629 E10.18412
G1 X8.456 Y49.244 E10.2728
G1 X7.738 Y47.8 E10.35326
G1 X-7.697 Y47.8 E11.12331
G1 X-8.681 Y49.55 E11.22347
G1 X-9.372 Y50.433 E11.27941
G1 X-10.749 Y51.542 E11.36762
G1 X-12.723 Y52.526 E11.47766
G1 X-14.246 Y52.748 E11.55445
G1 X-50.623 Y52.8 E13.36931
G1 X-52.676 Y52.377 E13.47388
G1 X-54.55 Y51.319 E13.58125
G1 X-55.433 Y50.628 E13.63719
G1 X-56.542 Y49.251 E13.72539
G1 X-57.526 Y47.277 E13.83543
G1 X-57.748 Y45.754 E13.91222
G1 X-57.797 Y22.304 E15.08215
G1 X-59.55 Y21.319 E15.18247
G1 X-60.433 Y20.628 E15.2384
G1 X-61.542 Y19.251 E15.32661
G1 X-62.526 Y17.277 E15.43665
G1 X-62.748 Y15.754 E15.51344
G1 X-62.8 Y-15.623 E17.07885
G1 X-62.378 Y-17.672 E17.18322
G1 X-61.357 Y-19.493 E17.28737
G1 X-60.629 Y-20.43 E17.34657
G1 X-59.244 Y-21.544 E17.43525
G1 X-57.8 Y-22.262 E17.5157
G1 X-57.8 Y-45.623 E18.68119
G1 X-57.377 Y-47.676 E18.78576
G1 X-56.319 Y-49.55 E18.89313
G1 X-55.628 Y-50.433 E18.94907
G1 X-54.251 Y-51.542 E19.03728
G1 X-52.277 Y-52.526 E19.14732
G1 X-50.754 Y-52.748 E19.2241
G1 X-14.392 Y-52.8 E21.03821
G1 X-12.343 Y-52.378 E21.14258
G1 X-10.522 Y-51.357 E21.24674
G1 X-9.585 Y-50.629 E21.30594
G1 X-8.471 Y-49.244 E21.39461
G1 X-7.753 Y-47.8 E21.47507
G1 X7.682 Y-47.8 E22.24512
G0 F3600 X7.972 Y-47.4
G1 F1800 X8.047 Y-47.642 E22.25776
G1 X8.981 Y-49.303 E22.35283
G1 X9.644 Y-50.15 E22.4065
G1 X10.954 Y-51.205 E22.49041
G1 X12.828 Y-52.139 E22.59488
G1 X14.289 Y-52.352 E22.66854
G1 X50.581 Y-52.4 E24.47915
G1 X52.534 Y-51.998 E24.57863
G1 X54.303 Y-51.004 E24.67987
G1 X55.15 Y-50.341 E24.73353
G1 X56.205 Y-49.031 E24.81744
G1 X57.139 Y-47.157 E24.92191
G1 X57.352 Y-45.696 E24.99557
G1 X57.398 Y-22.013 E26.17712
G1 X57.642 Y-21.938 E26.18985
G1 X59.303 Y-21.004 E26.28492
G1 X60.15 Y-20.341 E26.33859
G1 X61.205 Y-19.031 E26.4225
G1 X62.139 Y-17.157 E26.52697
G1 X62.352 Y-15.696 E26.60063
G1 X62.4 Y15.581 E28.16104
G1 X61.998 Y17.532 E28.26042
G1 X61.041 Y19.247 E28.35841
G1 X60.341 Y20.147 E28.41529
G1 X59.025 Y21.207 E28.49959
G1 X57.4 Y22.014 E28.59011
G1 X57.4 Y45.581 E29.76588
G1 X56.998 Y47.534 E29.86535
G1 X56.004 Y49.303 E29.96659
G1 X55.341 Y50.15 E30.02025
G1 X54.031 Y51.205 E30.10417
G1 X52.157 Y52.139 E30.20863
G1 X50.696 Y52.352 E30.28229
G1 X14.419 Y52.4 E32.09216
G1 X12.468 Y51.998 E32.19154
G1 X10.753 Y51.041 E32.28952
G1 X9.853 Y50.341 E32.3464
G1 X8.793 Y49.025 E32.43071
G1 X7.986 Y47.4 E32.52123
G1 X-7.987 Y47.4 E33.31812
G1 X-8.062 Y47.642 E33.33076
G1 X-8.996 Y49.303 E33.42583
G1 X-9.659 Y50.15 E33.4795
G1 X-10.969 Y51.205 E33.56341
G1 X-12.843 Y52.139 E33.66787
G1 X-14.304 Y52.352 E33.74153
G1 X-50.581 Y52.4 E35.5514
G1 X-52.534 Y51.998 E35.65088
G1 X-54.303 Y51.004 E35.75212
G1 X-55.15 Y50.341 E35.80578
G1 X-56.205 Y49.031 E35.88969
G1 X-57.139 Y47.157 E35.99416
G1 X-57.352 Y45.696 E36.06782
G1 X-57.398 Y22.013 E37.24937
G1 X-57.642 Y21.938 E37.2621
G1 X-59.303 Y21.004 E37.35717
G1 X-60.15 Y20.341 E37.41084
G1 X-61.205 Y19.031 E37.49475
G1 X-62.139 Y17.157 E37.59922
G1 X-62.352 Y15.696 E37.67288
G1 X-62.4 Y-15.581 E39.23329
G1 X-61.998 Y-17.532 E39.33267
G1 X-61.041 Y-19.247 E39.43066
G1 X-60.341 Y-20.147 E39.48754
G1 X-59.025 Y-21.207 E39.57184
G1 X-57.4 Y-22.014 E39.66236
G1 X-57.4 Y-45.581 E40.83813
G1 X-56.998 Y-47.534 E40.9376
G1 X-56.004 Y-49.303 E41.03884
G1 X-55.341 Y-50.15 E41.0925
G1 X-54.031 Y-51.205 E41.17642
G1 X-52.157 Y-52.139 E41.28088
G1 X-50.696 Y-52.352 E41.35454
G1 X-14.434 Y-52.4 E43.16366
G1 X-12.483 Y-51.998 E43.26304
G1 X-10.768 Y-51.041 E43.36102
G1 X-9.868 Y-50.341 E43.41791
G1 X-8.808 Y-49.025 E43.50221
G1 X-8.001 Y-47.4 E43.59273
G1 X7.972 Y-47.4 E44.38963
G1 F1500 E43.88963
G0 F3600 X50.653 Y-45.653
G0 X55.653 Y-15.653
G0 X55.653 Y15.653
G0 X50.653 Y45.653
G0 X8.263 Y47
G1 F1500 E44.38963
G1 F1800 X-8.302 Y47 E45.21606
G1 X-8.411 Y47.447 E45.23901
G1 X-9.311 Y49.056 E45.33099
G1 X-9.948 Y49.869 E45.38252
G1 X-11.185 Y50.866 E45.46178
G1 X-12.963 Y51.752 E45.56089
G1 X-14.362 Y51.956 E45.63142
G1 X-50.539 Y52 E47.4363
G1 X-52.394 Y51.618 E47.53079
G1 X-54.056 Y50.689 E47.62578
G1 X-54.869 Y50.052 E47.67731
G1 X-55.866 Y48.815 E47.75657
G1 X-56.752 Y47.037 E47.85568
G1 X-56.956 Y45.638 E47.92622
G1 X-56.999 Y21.698 E49.12059
G1 X-57.447 Y21.589 E49.14359
G1 X-59.056 Y20.689 E49.23557
G1 X-59.869 Y20.052 E49.2871
G1 X-60.866 Y18.815 E49.36636
G1 X-61.752 Y17.037 E49.46547
G1 X-61.956 Y15.638 E49.53601
G1 X-62 Y-15.539 E51.09143
G1 X-61.618 Y-17.391 E51.18578
G1 X-60.725 Y-19.001 E51.27763
G1 X-60.051 Y-19.867 E51.33238
G1 X-58.809 Y-20.868 E51.41196
G1 X-57.146 Y-21.694 E51.5046
G1 X-57 Y-21.737 E51.51219
G1 X-57 Y-45.539 E52.69968
G1 X-56.618 Y-47.394 E52.79417
G1 X-55.689 Y-49.056 E52.88916
G1 X-55.052 Y-49.869 E52.94069
G1 X-53.815 Y-50.866 E53.01995
G1 X-52.037 Y-51.752 E53.11906
G1 X-50.638 Y-51.956 E53.18959
G1 X-14.476 Y-52 E54.99372
G1 X-12.624 Y-51.618 E55.08806
G1 X-11.014 Y-50.725 E55.17992
G1 X-10.148 Y-50.051 E55.23466
G1 X-9.147 Y-48.809 E55.31425
G1 X-8.321 Y-47.146 E55.40689
G1 X-8.278 Y-47 E55.41448
G1 X8.287 Y-47 E56.24091
G1 X8.396 Y-47.447 E56.26386
G1 X9.296 Y-49.056 E56.35584
G1 X9.933 Y-49.869 E56.40737
G1 X11.17 Y-50.866 E56.48663
G1 X12.948 Y-51.752 E56.58574
G1 X14.347 Y-51.956 E56.65628
G1 X50.539 Y-52 E58.4619
G1 X52.394 Y-51.618 E58.55639
G1 X54.056 Y-50.689 E58.65138
G1 X54.869 Y-50.052 E58.70291
G1 X55.866 Y-48.815 E58.78218
G1 X56.752 Y-47.037 E58.88128
G1 X56.956 Y-45.638 E58.95182
G1 X56.999 Y-21.698 E60.14619
G1 X57.447 Y-21.589 E60.16919
G1 X59.056 Y-20.689 E60.26117
G1 X59.869 Y-20.052 E60.3127
G1 X60.866 Y-18.815 E60.39196
G1 X61.752 Y-17.037 E60.49107
G1 X61.956 Y-15.638 E60.56161
G1 X62 Y15.539 E62.11704
G1 X61.618 Y17.391 E62.21138
G1 X60.725 Y19.001 E62.30323
G1 X60.051 Y19.867 E62.35798
G1 X58.809 Y20.868 E62.43756
G1 X57.146 Y21.694 E62.5302
G1 X57 Y21.737 E62.53779
G1 X57 Y45.539 E63.72528
G1 X56.618 Y47.394 E63.81977
G1 X55.689 Y49.056 E63.91476
G1 X55.052 Y49.869 E63.96629
G1 X53.815 Y50.866 E64.04555
G1 X52.037 Y51.752 E64.14466
G1 X50.638 Y51.956 E64.21519
G1 X14.461 Y52 E66.02007
G1 X12.609 Y51.618 E66.11441
G1 X10.999 Y50.725 E66.20627
G1 X10.133 Y50.051 E66.26101
G1 X9.132 Y48.809 E66.3406
G1 X8.306 Y47.146 E66.43324
G1 X8.263 Y47 E66.44083
G0 F3600 X8.593 Y46.6
G1 F1800 X-8.63 Y46.6 E67.30009
G1 X-8.761 Y47.253 E67.33331
G1 X-9.626 Y48.809 E67.42213
G1 X-10.237 Y49.588 E67.47153
G1 X-11.402 Y50.527 E67.54618
G1 X-13.083 Y51.365 E67.63989
G1 X-14.42 Y51.56 E67.70729
G1 X-50.497 Y51.6 E69.50718
G1 X-52.253 Y51.238 E69.59663
G1 X-53.809 Y50.374 E69.68543
G1 X-54.588 Y49.763 E69.73482
G1 X-55.527 Y48.598 E69.80947
G1 X-56.365 Y46.917 E69.90318
G1 X-56.56 Y45.58 E69.97059
G1 X-56.6 Y21.37 E71.17843
G1 X-57.253 Y21.239 E71.21166
G1 X-58.809 Y20.374 E71.30048
G1 X-59.588 Y19.763 E71.34987
G1 X-60.527 Y18.598 E71.42452
G1 X-61.365 Y16.917 E71.51823
G1 X-61.56 Y15.58 E71.58564
G1 X-61.6 Y-15.497 E73.13608
G1 X-61.238 Y-17.252 E73.22548
G1 X-60.409 Y-18.755 E73.31111
G1 X-59.761 Y-19.587 E73.36373
G1 X-58.593 Y-20.529 E73.43859
G1 X-56.968 Y-21.336 E73.52911
G1 X-56.6 Y-21.407 E73.54781
G1 X-56.6 Y-45.497 E74.74966
G1 X-56.238 Y-47.253 E74.83911
G1 X-55.374 Y-48.809 E74.9279
G1 X-54.763 Y-49.588 E74.9773
G1 X-53.598 Y-50.527 E75.05195
G1 X-51.917 Y-51.365 E75.14566
G1 X-50.58 Y-51.56 E75.21307
G1 X-14.518 Y-51.6 E77.01221
G1 X-12.763 Y-51.238 E77.10161
G1 X-11.26 Y-50.409 E77.18724
G1 X-10.428 Y-49.761 E77.23986
G1 X-9.486 Y-48.593 E77.31472
G1 X-8.679 Y-46.968 E77.40524
G1 X-8.608 Y-46.6 E77.42393
G1 X8.615 Y-46.6 E78.28319
G1 X8.746 Y-47.253 E78.31642
G1 X9.611 Y-48.809 E78.40524
G1 X10.222 Y-49.588 E78.45463
G1 X11.387 Y-50.527 E78.52928
G1 X13.068 Y-51.365 E78.62299
G1 X14.405 Y-51.56 E78.6904
G1 X50.497 Y-51.6 E80.49104
G1 X52.253 Y-51.238 E80.58049
G1 X53.809 Y-50.374 E80.66928
G1 X54.588 Y-49.763 E80.71867
G1 X55.527 Y-48.598 E80.79333
G1 X56.365 Y-46.917 E80.88703
G1 X56.56 Y-45.58 E80.95444
G1 X56.6 Y-21.37 E82.16229
G1 X57.253 Y-21.239 E82.19551
G1 X58.809 Y-20.374 E82.28433
G1 X59.588 Y-19.763 E82.33372
G1 X60.527 Y-18.598 E82.40838
G1 X61.365 Y-16.917 E82.50208
G1 X61.56 Y-15.58 E82.56949
G1 X61.6 Y15.497 E84.11993
G1 X61.238 Y17.252 E84.20933
G1 X60.409 Y18.755 E84.29497
G1 X59.761 Y19.587 E84.34758
G1 X58.593 Y20.529 E84.42244
G1 X56.968 Y21.336 E84.51296
G1 X56.6 Y21.407 E84.53166
G1 X56.6 Y45.497 E85.73351
G1 X56.238 Y47.253 E85.82296
G1 X55.374 Y48.809 E85.91176
G1 X54.763 Y49.588 E85.96115
G1 X53.598 Y50.527 E86.0358
G1 X51.917 Y51.365 E86.12951
G1 X50.58 Y51.56 E86.19692
G1 X14.503 Y51.6 E87.99681
G1 X12.748 Y51.238 E88.08621
G1 X11.245 Y50.409 E88.17184
G1 X10.413 Y49.761 E88.22446
G1 X9.471 Y48.593 E88.29932
G1 X8.664 Y46.968 E88.38984
G1 X8.593 Y46.6 E88.40854
G1 F1500 E87.90854
G0 F3600 X50.653 Y45.653
G0 X55.653 Y15.653
G0 X55.653 Y-15.653
G0 X50.653 Y-45.653
G0 X8.942 Y-46.2
G1 F1500 E88.40854
G1 F1800 X9.126 Y-47.114 E88.45505
G1 X9.926 Y-48.562 E88.53758
G1 X10.508 Y-49.305 E88.58467
G1 X11.607 Y-50.19 E88.65507
G1 X13.188 Y-50.978 E88.7432
G1 X14.463 Y-51.164 E88.80748
G1 X50.455 Y-51.2 E90.60313
G1 X52.114 Y-50.858 E90.68764
G1 X53.562 Y-50.059 E90.77015
G1 X54.305 Y-49.477 E90.81723
G1 X55.19 Y-48.378 E90.88763
G1 X55.978 Y-46.797 E90.97576
G1 X56.164 Y-45.522 E91.04005
G1 X56.2 Y-21.043 E92.26131
G1 X57.114 Y-20.859 E92.30782
G1 X58.562 Y-20.059 E92.39036
G1 X59.305 Y-19.477 E92.43744
G1 X60.19 Y-18.378 E92.50784
G1 X60.978 Y-16.797 E92.59597
G1 X61.164 Y-15.522 E92.66025
G1 X61.2 Y15.455 E94.2057
G1 X60.858 Y17.114 E94.29021
G1 X60.059 Y18.562 E94.37272
G1 X59.475 Y19.305 E94.41987
G1 X58.377 Y20.19 E94.49023
G1 X56.79 Y20.978 E94.57863
G1 X56.2 Y21.057 E94.60832
G1 X56.2 Y45.455 E95.82555
G1 X55.858 Y47.114 E95.91005
G1 X55.059 Y48.562 E95.99256
G1 X54.477 Y49.305 E96.03965
G1 X53.378 Y50.19 E96.11005
G1 X51.797 Y50.978 E96.19818
G1 X50.522 Y51.164 E96.26246
G1 X14.545 Y51.2 E98.05736
G1 X12.886 Y50.858 E98.14187
G1 X11.438 Y50.059 E98.22438
G1 X10.695 Y49.475 E98.27153
G1 X9.81 Y48.377 E98.34189
G1 X9.022 Y46.79 E98.43028
G1 X8.943 Y46.2 E98.45998
G1 X-8.957 Y46.2 E99.35302
G1 X-9.141 Y47.114 E99.39953
G1 X-9.941 Y48.562 E99.48207
G1 X-10.523 Y49.305 E99.52915
G1 X-11.622 Y50.19 E99.59955
G1 X-13.203 Y50.978 E99.68768
G1 X-14.478 Y51.164 E99.75196
G1 X-50.455 Y51.2 E101.54686
G1 X-52.114 Y50.858 E101.63137
G1 X-53.562 Y50.059 E101.71388
G1 X-54.305 Y49.477 E101.76097
G1 X-55.19 Y48.378 E101.83136
G1 X-55.978 Y46.797 E101.9195
G1 X-56.164 Y45.522 E101.98378
G1 X-56.2 Y21.043 E103.20504
G1 X-57.114 Y20.859 E103.25156
G1 X-58.562 Y20.059 E103.33409
G1 X-59.305 Y19.477 E103.38118
G1 X-60.19 Y18.378 E103.45157
G1 X-60.978 Y16.797 E103.5397
G1 X-61.164 Y15.522 E103.60399
G1 X-61.2 Y-15.455 E105.14944
G1 X-60.858 Y-17.114 E105.23395
G1 X-60.059 Y-18.562 E105.31646
G1 X-59.475 Y-19.305 E105.3636
G1 X-58.377 Y-20.19 E105.43396
G1 X-56.79 Y-20.978 E105.52236
G1 X-56.2 Y-21.057 E105.55206
G1 X-56.2 Y-45.455 E106.76928
G1 X-55.858 Y-47.114 E106.85379
G1 X-55.059 Y-48.562 E106.9363
G1 X-54.477 Y-49.305 E106.98338
G1 X-53.378 Y-50.19 E107.05378
G1 X-51.797 Y-50.978 E107.14191
G1 X-50.522 Y-51.164 E107.20619
G1 X-14.56 Y-51.2 E109.00035
G1 X-12.901 Y-50.858 E109.08486
G1 X-11.453 Y-50.059 E109.16736
G1 X-10.71 Y-49.475 E109.21451
G1 X-9.825 Y-48.377 E109.28487
G1 X-9.037 Y-46.79 E109.37327
G1 X-8.958 Y-46.2 E109.40297
G1 X8.942 Y-46.2 E110.296
G0 F3600 X9.269 Y-45.8
G1 F1800 X9.506 Y-46.974 E110.35576
G1 X10.241 Y-48.315 E110.43205
G1 X10.797 Y-49.024 E110.477
G1 X11.823 Y-49.851 E110.54274
G1 X13.308 Y-50.591 E110.62552
G1 X14.521 Y-50.768 E110.68668
G1 X50.413 Y-50.8 E112.47734
G1 X51.974 Y-50.478 E112.55686
G1 X53.315 Y-49.744 E112.63313
G1 X54.024 Y-49.188 E112.67808
G1 X54.851 Y-48.162 E112.74382
G1 X55.591 Y-46.677 E112.8266
G1 X55.768 Y-45.464 E112.88776
G1 X55.8 Y-20.716 E114.12244
G1 X56.974 Y-20.479 E114.18219
G1 X58.315 Y-19.744 E114.25849
G1 X59.024 Y-19.188 E114.30344
G1 X59.851 Y-18.162 E114.36918
G1 X60.591 Y-16.677 E114.45196
G1 X60.768 Y-15.464 E114.51312
G1 X60.8 Y15.413 E116.05358
G1 X60.478 Y16.974 E116.1331
G1 X59.744 Y18.315 E116.20936
G1 X59.187 Y19.024 E116.25435
G1 X58.161 Y19.851 E116.32009
G1 X56.671 Y20.591 E116.40309
G1 X55.8 Y20.708 E116.44694
G1 X55.8 Y45.413 E117.67947
G1 X55.478 Y46.974 E117.75899
G1 X54.744 Y48.315 E117.83526
G1 X54.188 Y49.024 E117.88021
G1 X53.162 Y49.851 E117.94596
G1 X51.677 Y50.591 E118.02873
G1 X50.464 Y50.768 E118.08989
G1 X14.587 Y50.8 E119.8798
G1 X13.026 Y50.478 E119.95932
G1 X11.685 Y49.744 E120.03559
G1 X10.976 Y49.187 E120.08057
G1 X10.149 Y48.161 E120.14632
G1 X9.409 Y46.671 E120.22932
G1 X9.292 Y45.8 E120.27316
G1 X-9.284 Y45.8 E121.19992
G1 X-9.521 Y46.974 E121.25968
G1 X-10.256 Y48.315 E121.33597
G1 X-10.812 Y49.024 E121.38092
G1 X-11.838 Y49.851 E121.44667
G1 X-13.323 Y50.591 E121.52944
G1 X-14.536 Y50.768 E121.5906
G1 X-50.413 Y50.8 E123.38051
G1 X-51.974 Y50.478 E123.46003
G1 X-53.315 Y49.744 E123.5363
G1 X-54.024 Y49.188 E123.58125
G1 X-54.851 Y48.162 E123.64699
G1 X-55.591 Y46.677 E123.72977
G1 X-55.768 Y45.464 E123.79093
G1 X-55.8 Y20.716 E125.02561
G1 X-56.974 Y20.479 E125.08536
G1 X-58.315 Y19.744 E125.16166
G1 X-59.024 Y19.188 E125.20661
G1 X-59.851 Y18.162 E125.27235
G1 X-60.591 Y16.677 E125.35513
G1 X-60.768 Y15.464 E125.41629
G1 X-60.8 Y-15.413 E126.95675
G1 X-60.478 Y-16.974 E127.03627
G1 X-59.744 Y-18.315 E127.11254
G1 X-59.187 Y-19.024 E127.15752
G1 X-58.161 Y-19.851 E127.22326
G1 X-56.671 Y-20.591 E127.30626
G1 X-55.8 Y-20.708 E127.35011
G1 X-55.8 Y-45.413 E128.58265
G1 X-55.478 Y-46.974 E128.66216
G1 X-54.744 Y-48.315 E128.73843
G1 X-54.188 Y-49.024 E128.78338
G1 X-53.162 Y-49.851 E128.84913
G1 X-51.677 Y-50.591 E128.93191
G1 X-50.464 Y-50.768 E128.99306
G1 X-14.602 Y-50.8 E130.78223
G1 X-13.041 Y-50.478 E130.86174
G1 X-11.7 Y-49.744 E130.93801
G1 X-10.991 Y-49.187 E130.983
G1 X-10.164 Y-48.161 E131.04874
G1 X-9.424 Y-46.671 E131.13174
G1 X-9.307 Y-45.8 E131.17559
G1 X9.269 Y-45.8 E132.10235
G0 F3600 X9.596 Y-45.4
G1 F1800 X9.886 Y-46.836 E132.17543
G1 X10.556 Y-48.068 E132.2454
G1 X11.086 Y-48.743 E132.28822
