;FLAVOR:Marlin
;TIME:2346
;Filament used: 4.30151m
;Layer height: 0.4
;MINX:-57.8
;MINY:-57.8
;MINZ:0.3
;MAXX:57.8
;MAXY:57.8
;MAXZ:9.9
;TARGET_MACHINE.NAME:Unknown
;Generated with Cura_SteamEngine 5.6.0
M104 S230
M105
M109 S230
M82 ;absolute extrusion mode
G28 ;Home
G1 Z15.0 F6000 ;Move the platform down 15mm
;Prime the extruder
G92 E0
G1 F200 E3
G92 E0
G92 E0
G92 E0
G1 F1500 E-0.5
;LAYER_COUNT:25
;LAYER:0
M107
G0 F3600 X7.697 Y-52.8 Z0.3
;TYPE:SKIRT
G1 F1500 E0
G1 F1800 X8.681 Y-54.55 E0.10016
G1 X9.372 Y-55.433 E0.1561
G1 X10.749 Y-56.542 E0.24431
G1 X12.723 Y-57.526 E0.35435
G1 X14.246 Y-57.748 E0.43114
G1 X50.623 Y-57.8 E2.24599
G1 X52.676 Y-57.377 E2.35057
G1 X54.55 Y-56.319 E2.45794
G1 X55.433 Y-55.628 E2.51387
G1 X56.542 Y-54.251 E2.60208
G1 X57.526 Y-52.277 E2.71212
G1 X57.748 Y-50.754 E2.78891
G1 X57.8 Y50.623 E7.84663
G1 X57.377 Y52.676 E7.95121
G1 X56.319 Y54.55 E8.05857
G1 X55.628 Y55.433 E8.11451
G1 X54.251 Y56.542 E8.20272
G1 X52.277 Y57.526 E8.31276
G1 X50.754 Y57.748 E8.38954
G1 X14.362 Y57.8 E10.20515
G1 X12.313 Y57.378 E10.30952
G1 X10.492 Y56.357 E10.41368
G1 X9.555 Y55.629 E10.47288
G1 X8.441 Y54.244 E10.56155
G1 X7.723 Y52.8 E10.64201
G1 X-7.712 Y52.8 E11.41206
G1 X-8.696 Y54.55 E11.51223
G1 X-9.387 Y55.433 E11.56816
G1 X-10.764 Y56.542 E11.65637
G1 X-12.738 Y57.526 E11.76641
G1 X-14.261 Y57.748 E11.8432
G1 X-50.623 Y57.8 E13.65731
G1 X-52.676 Y57.377 E13.76188
G1 X-54.55 Y56.319 E13.86925
G1 X-55.433 Y55.628 E13.92519
G1 X-56.542 Y54.251 E14.0134
G1 X-57.526 Y52.277 E14.12344
G1 X-57.748 Y50.754 E14.20022
G1 X-57.8 Y-50.623 E19.25794
G1 X-57.377 Y-52.676 E19.36252
G1 X-56.319 Y-54.55 E19.46988
G1 X-55.628 Y-55.433 E19.52582
G1 X-54.251 Y-56.542 E19.61403
G1 X-52.277 Y-57.526 E19.72407
G1 X-50.754 Y-57.748 E19.80086
G1 X-14.377 Y-57.8 E21.61572
G1 X-12.328 Y-57.378 E21.72009
G1 X-10.507 Y-56.357 E21.82424
G1 X-9.57 Y-55.629 E21.88344
G1 X-8.456 Y-54.244 E21.97212
G1 X-7.738 Y-52.8 E22.05257
G1 X7.697 Y-52.8 E22.82263
G1 F1500 E22.32263
G0 F3600 X50.653 Y-50.653
G0 X50.653 Y50.653
G0 X7.971 Y52.4
G1 F1500 E22.82263
G1 F1800 X-8.002 Y52.4 E23.61952
G1 X-8.077 Y52.642 E23.63216
G1 X-9.011 Y54.303 E23.72723
G1 X-9.674 Y55.15 E23.7809
G1 X-10.984 Y56.205 E23.86481
G1 X-12.858 Y57.139 E23.96928
G1 X-14.319 Y57.352 E24.04294
G1 X-50.581 Y57.4 E25.85206
G1 X-52.534 Y56.998 E25.95153
G1 X-54.303 Y56.004 E26.05277
G1 X-55.15 Y55.341 E26.10643
G1 X-56.205 Y54.031 E26.19035
G1 X-57.139 Y52.157 E26.29481
G1 X-57.352 Y50.696 E26.36847
G1 X-57.4 Y-50.581 E31.4212
G1 X-56.998 Y-52.534 E31.52068
G1 X-56.004 Y-54.303 E31.62191
G1 X-55.341 Y-55.15 E31.67558
G1 X-54.031 Y-56.205 E31.75949
G1 X-52.157 Y-57.139 E31.86395
G1 X-50.696 Y-57.352 E31.93761
G1 X-14.419 Y-57.4 E33.74748
G1 X-12.468 Y-56.998 E33.84686
G1 X-10.753 Y-56.041 E33.94485
G1 X-9.853 Y-55.341 E34.00173
G1 X-8.793 Y-54.025 E34.08603
G1 X-7.986 Y-52.4 E34.17655
G1 X7.987 Y-52.4 E34.97345
G1 X8.062 Y-52.642 E34.98609
G1 X8.996 Y-54.303 E35.08116
G1 X9.659 Y-55.15 E35.13482
G1 X10.969 Y-56.205 E35.21874
G1 X12.843 Y-57.139 E35.3232
G1 X14.304 Y-57.352 E35.39686
G1 X50.581 Y-57.4 E37.20673
G1 X52.534 Y-56.998 E37.30621
G1 X54.303 Y-56.004 E37.40744
G1 X55.15 Y-55.341 E37.4611
G1 X56.205 Y-54.031 E37.54502
G1 X57.139 Y-52.157 E37.64948
G1 X57.352 Y-50.696 E37.72314
G1 X57.4 Y50.581 E42.77587
G1 X56.998 Y52.534 E42.87535
G1 X56.004 Y54.303 E42.97659
G1 X55.341 Y55.15 E43.03025
G1 X54.031 Y56.205 E43.11416
G1 X52.157 Y57.139 E43.21863
G1 X50.696 Y57.352 E43.29229
G1 X14.404 Y57.4 E45.1029
G1 X12.453 Y56.998 E45.20228
G1 X10.738 Y56.041 E45.30027
G1 X9.838 Y55.341 E45.35715
G1 X8.778 Y54.025 E45.44145
G1 X7.971 Y52.4 E45.53197
G0 F3600 X8.248 Y52
G1 F1800 X-8.317 Y52 E46.3584
G1 X-8.426 Y52.447 E46.38136
G1 X-9.326 Y54.056 E46.47334
G1 X-9.963 Y54.869 E46.52486
G1 X-11.2 Y55.866 E46.60413
G1 X-12.978 Y56.752 E46.70324
G1 X-14.377 Y56.956 E46.77377
G1 X-50.539 Y57 E48.5779
G1 X-52.394 Y56.618 E48.67239
G1 X-54.056 Y55.689 E48.76738
G1 X-54.869 Y55.052 E48.81891
G1 X-55.866 Y53.815 E48.89817
G1 X-56.752 Y52.037 E48.99728
G1 X-56.956 Y50.638 E49.06782
G1 X-57 Y-50.539 E54.11556
G1 X-56.618 Y-52.394 E54.21005
G1 X-55.689 Y-54.056 E54.30504
G1 X-55.052 Y-54.869 E54.35657
G1 X-53.815 Y-55.866 E54.43583
G1 X-52.037 Y-56.752 E54.53494
G1 X-50.638 Y-56.956 E54.60547
G1 X-14.461 Y-57 E56.41035
G1 X-12.609 Y-56.618 E56.50469
G1 X-10.999 Y-55.725 E56.59655
G1 X-10.133 Y-55.051 E56.65129
G1 X-9.132 Y-53.809 E56.73088
G1 X-8.306 Y-52.146 E56.82352
G1 X-8.263 Y-52 E56.83111
G1 X8.302 Y-52 E57.65754
G1 X8.411 Y-52.447 E57.68049
G1 X9.311 Y-54.056 E57.77247
G1 X9.948 Y-54.869 E57.824
G1 X11.185 Y-55.866 E57.90326
G1 X12.963 Y-56.752 E58.00237
G1 X14.362 Y-56.956 E58.07291
G1 X50.539 Y-57 E59.87779
G1 X52.394 Y-56.618 E59.97227
G1 X54.056 Y-55.689 E60.06727
G1 X54.869 Y-55.052 E60.11879
G1 X55.866 Y-53.815 E60.19806
G1 X56.752 Y-52.037 E60.29717
G1 X56.956 Y-50.638 E60.3677
G1 X57 Y50.539 E65.41544
G1 X56.618 Y52.394 E65.50993
G1 X55.689 Y54.056 E65.60492
G1 X55.052 Y54.869 E65.65645
G1 X53.815 Y55.866 E65.73571
G1 X52.037 Y56.752 E65.83482
G1 X50.638 Y56.956 E65.90536
G1 X14.446 Y57 E67.71098
G1 X12.594 Y56.618 E67.80533
G1 X10.984 Y55.725 E67.89718
G1 X10.118 Y55.051 E67.95193
G1 X9.117 Y53.809 E68.03151
G1 X8.291 Y52.146 E68.12415
G1 X8.248 Y52 E68.13174
G0 F3600 X8.578 Y51.6
G1 F1800 X-8.645 Y51.6 E68.991
G1 X-8.776 Y52.253 E69.02423
G1 X-9.641 Y53.809 E69.11304
G1 X-10.252 Y54.588 E69.16244
G1 X-11.417 Y55.527 E69.23709
G1 X-13.098 Y56.365 E69.3308
G1 X-14.435 Y56.56 E69.39821
G1 X-50.497 Y56.6 E71.19735
G1 X-52.253 Y56.238 E71.2868
G1 X-53.809 Y55.374 E71.37559
G1 X-54.588 Y54.763 E71.42498
G1 X-55.527 Y53.598 E71.49964
G1 X-56.365 Y51.917 E71.59334
G1 X-56.56 Y50.58 E71.66075
G1 X-56.6 Y-50.497 E76.70351
G1 X-56.238 Y-52.253 E76.79295
G1 X-55.374 Y-53.809 E76.88175
G1 X-54.763 Y-54.588 E76.93114
G1 X-53.598 Y-55.527 E77.00579
G1 X-51.917 Y-56.365 E77.0995
G1 X-50.58 Y-56.56 E77.16691
G1 X-14.503 Y-56.6 E78.9668
G1 X-12.748 Y-56.238 E79.0562
G1 X-11.245 Y-55.409 E79.14184
G1 X-10.413 Y-54.761 E79.19445
G1 X-9.471 Y-53.593 E79.26931
G1 X-8.664 Y-51.968 E79.35983
G1 X-8.593 Y-51.6 E79.37853
G1 X8.63 Y-51.6 E80.23779
G1 X8.761 Y-52.253 E80.27101
G1 X9.626 Y-53.809 E80.35983
G1 X10.237 Y-54.588 E80.40922
G1 X11.402 Y-55.527 E80.48388
G1 X13.083 Y-56.365 E80.57758
G1 X14.42 Y-56.56 E80.64499
G1 X50.497 Y-56.6 E82.44488
G1 X52.253 Y-56.238 E82.53433
G1 X53.809 Y-55.374 E82.62313
G1 X54.588 Y-54.763 E82.67252
G1 X55.527 Y-53.598 E82.74717
G1 X56.365 Y-51.917 E82.84088
G1 X56.56 Y-50.58 E82.90829
G1 X56.6 Y50.497 E87.95104
G1 X56.238 Y52.253 E88.04049
G1 X55.374 Y53.809 E88.12928
G1 X54.763 Y54.588 E88.17868
G1 X53.598 Y55.527 E88.25333
G1 X51.917 Y56.365 E88.34704
G1 X50.58 Y56.56 E88.41444
G1 X14.488 Y56.6 E90.21508
G1 X12.733 Y56.238 E90.30448
G1 X11.23 Y55.409 E90.39012
G1 X10.398 Y54.761 E90.44273
G1 X9.456 Y53.593 E90.51759
G1 X8.649 Y51.968 E90.60811
G1 X8.578 Y51.6 E90.62681
G0 F3600 X8.928 Y51.2
G1 F1800 X-8.972 Y51.2 E91.51984
G1 X-9.156 Y52.114 E91.56636
G1 X-9.956 Y53.562 E91.64889
G1 X-10.538 Y54.305 E91.69598
G1 X-11.637 Y55.19 E91.76638
G1 X-13.218 Y55.978 E91.85451
G1 X-14.493 Y56.164 E91.91879
G1 X-50.455 Y56.2 E93.71294
G1 X-52.114 Y55.858 E93.79745
G1 X-53.562 Y55.059 E93.87996
G1 X-54.305 Y54.477 E93.92705
G1 X-55.19 Y53.378 E93.99744
G1 X-55.978 Y51.797 E94.08557
G1 X-56.164 Y50.522 E94.14986
G1 X-56.2 Y-50.455 E99.18762
G1 X-55.858 Y-52.114 E99.27213
G1 X-55.059 Y-53.562 E99.35464
G1 X-54.477 Y-54.305 E99.40172
G1 X-53.378 Y-55.19 E99.47212
G1 X-51.797 Y-55.978 E99.56025
G1 X-50.522 Y-56.164 E99.62454
G1 X-14.545 Y-56.2 E101.41944
G1 X-12.886 Y-55.858 E101.50394
G1 X-11.438 Y-55.059 E101.58645
G1 X-10.695 Y-54.475 E101.6336
G1 X-9.81 Y-53.377 E101.70396
G1 X-9.022 Y-51.79 E101.79236
G1 X-8.943 Y-51.2 E101.82206
G1 X8.957 Y-51.2 E102.71509
G1 X9.141 Y-52.114 E102.76161
G1 X9.941 Y-53.562 E102.84414
G1 X10.523 Y-54.305 E102.89123
G1 X11.622 Y-55.19 E102.96162
G1 X13.203 Y-55.978 E103.04975
G1 X14.478 Y-56.164 E103.11404
G1 X50.455 Y-56.2 E104.90894
G1 X52.114 Y-55.858 E104.99345
G1 X53.562 Y-55.059 E105.07596
G1 X54.305 Y-54.477 E105.12304
G1 X55.19 Y-53.378 E105.19344
G1 X55.978 Y-51.797 E105.28157
G1 X56.164 Y-50.522 E105.34585
G1 X56.2 Y50.455 E110.38362
G1 X55.858 Y52.114 E110.46812
G1 X55.059 Y53.562 E110.55063
G1 X54.477 Y54.305 E110.59772
G1 X53.378 Y55.19 E110.66812
G1 X51.797 Y55.978 E110.75625
G1 X50.522 Y56.164 E110.82053
G1 X14.53 Y56.2 E112.61618
G1 X12.871 Y55.858 E112.70069
G1 X11.423 Y55.059 E112.7832
G1 X10.68 Y54.475 E112.83035
G1 X9.795 Y53.377 E112.9007
G1 X9.007 Y51.79 E112.9891
G1 X8.928 Y51.2 E113.0188
G0 F3600 X9.277 Y50.8
G1 F1800 X-9.299 Y50.8 E113.94556
G1 X-9.536 Y51.974 E114.00531
G1 X-10.271 Y53.315 E114.08161
G1 X-10.827 Y54.024 E114.12656
G1 X-11.853 Y54.851 E114.1923
G1 X-13.338 Y55.591 E114.27508
G1 X-14.551 Y55.768 E114.33624
G1 X-50.413 Y55.8 E116.1254
G1 X-51.974 Y55.478 E116.20492
G1 X-53.315 Y54.744 E116.28119
G1 X-54.024 Y54.188 E116.32614
G1 X-54.851 Y53.162 E116.39189
G1 X-55.591 Y51.677 E116.47466
G1 X-55.768 Y50.464 E116.53582
G1 X-55.8 Y-50.413 E121.56859
G1 X-55.478 Y-51.974 E121.64811
G1 X-54.744 Y-53.315 E121.72438
G1 X-54.188 Y-54.024 E121.76933
G1 X-53.162 Y-54.851 E121.83508
G1 X-51.677 Y-55.591 E121.91785
G1 X-50.464 Y-55.768 E121.97901
G1 X-14.587 Y-55.8 E123.76892
G1 X-13.026 Y-55.478 E123.84844
G1 X-11.685 Y-54.744 E123.92471
G1 X-10.976 Y-54.187 E123.96969
G1 X-10.149 Y-53.161 E124.03544
G1 X-9.409 Y-51.671 E124.11844
G1 X-9.292 Y-50.8 E124.16228
G1 X9.284 Y-50.8 E125.08904
G1 X9.521 Y-51.974 E125.1488
G1 X10.256 Y-53.315 E125.22509
G1 X10.812 Y-54.024 E125.27004
G1 X11.838 Y-54.851 E125.33579
G1 X13.323 Y-55.591 E125.41856
G1 X14.536 Y-55.768 E125.47972
G1 X50.413 Y-55.8 E127.26963
G1 X51.974 Y-55.478 E127.34915
G1 X53.315 Y-54.744 E127.42542
G1 X54.024 Y-54.188 E127.47037
G1 X54.851 Y-53.162 E127.53611
G1 X55.591 Y-51.677 E127.61889
G1 X55.768 Y-50.464 E127.68005
G1 X55.8 Y50.413 E132.71282
G1 X55.478 Y51.974 E132.79234
G1 X54.744 Y53.315 E132.86861
G1 X54.188 Y54.024 E132.91356
G1 X53.162 Y54.851 E132.97931
G1 X51.677 Y55.591 E133.06208
G1 X50.464 Y55.768 E133.12324
G1 X14.572 Y55.8 E134.9139
G1 X13.011 Y55.478 E134.99342
G1 X11.67 Y54.744 E135.06969
G1 X10.961 Y54.187 E135.11467
G1 X10.134 Y53.161 E135.18042
G1 X9.394 Y51.671 E135.26341
G1 X9.277 Y50.8 E135.30726
G1 F1500 E134.80726
G0 F3600 X50.653 Y50.653
G0 X50.653 Y-50.653
G0 X14.347 Y-50.653
G0 X9.611 Y-50.4
G1 F1500 E135.30726
G1 F1800 X9.901 Y-51.836 E135.38035
G1 X10.571 Y-53.068 E135.45031
G1 X11.101 Y-53.743 E135.49313
G1 X12.054 Y-54.512 E135.55422
G1 X13.443 Y-55.204 E135.63165
G1 X14.594 Y-55.372 E135.68968
G1 X50.371 Y-55.4 E137.4746
G1 X51.837 Y-55.098 E137.54927
G1 X53.068 Y-54.429 E137.61917
G1 X53.743 Y-53.899 E137.66199
G1 X54.512 Y-52.946 E137.72308
G1 X55.204 Y-51.557 E137.8005
G1 X55.372 Y-50.406 E137.85854
G1 X55.4 Y50.371 E142.88632
G1 X55.098 Y51.837 E142.961
G1 X54.429 Y53.068 E143.0309
G1 X53.899 Y53.743 E143.07371
G1 X52.946 Y54.512 E143.13481
G1 X51.557 Y55.204 E143.21223
G1 X50.406 Y55.372 E143.27026
G1 X14.614 Y55.4 E145.05593
G1 X13.148 Y55.098 E145.1306
G1 X11.917 Y54.429 E145.2005
G1 X11.242 Y53.899 E145.24332
G1 X10.473 Y52.945 E145.30445
G1 X9.781 Y51.552 E145.38205
G1 X9.627 Y50.4 E145.44004
G1 X-9.626 Y50.4 E146.40057
G1 X-9.916 Y51.836 E146.47366
G1 X-10.586 Y53.068 E146.54363
G1 X-11.116 Y53.743 E146.58644
G1 X-12.069 Y54.512 E146.64754
G1 X-13.458 Y55.204 E146.72496
G1 X-14.609 Y55.372 E146.78299
G1 X-50.371 Y55.4 E148.56716
G1 X-51.837 Y55.098 E148.64184
G1 X-53.068 Y54.429 E148.71174
G1 X-53.743 Y53.899 E148.75455
G1 X-54.512 Y52.946 E148.81565
G1 X-55.204 Y51.557 E148.89307
G1 X-55.372 Y50.406 E148.9511
G1 X-55.4 Y-50.371 E153.97889
G1 X-55.098 Y-51.837 E154.05356
G1 X-54.429 Y-53.068 E154.12346
G1 X-53.899 Y-53.743 E154.16628
G1 X-52.946 Y-54.512 E154.22737
G1 X-51.557 Y-55.204 E154.30479
G1 X-50.406 Y-55.372 E154.36282
G1 X-14.629 Y-55.4 E156.14775
G1 X-13.163 Y-55.098 E156.22242
G1 X-11.932 Y-54.429 E156.29232
G1 X-11.257 Y-53.899 E156.33514
G1 X-10.488 Y-52.945 E156.39627
G1 X-9.796 Y-51.552 E156.47387
G1 X-9.642 Y-50.4 E156.53185
G1 X9.611 Y-50.4 E157.49239
G1 F1500 E156.99239
G0 F3600 X14.347 Y-50.653
G0 X50.653 Y-50.653
G0 X50.653 Y50.653
G0 X14.332 Y50.653
G0 X9.977 Y50
G1 F1500 E157.49239
G1 F1800 X-10.015 Y50 E158.48979
G1 X-10.023 Y50.368 E158.50816
G1 X-10.297 Y51.699 E158.57595
G1 X-10.901 Y52.821 E158.63953
G1 X-11.404 Y53.462 E158.68018
G1 X-12.286 Y54.173 E158.7367
G1 X-13.578 Y54.817 E158.80872
G1 X-14.667 Y54.976 E158.86363
G1 X-50.329 Y55 E160.64281
G1 X-51.699 Y54.718 E160.71259
G1 X-52.821 Y54.114 E160.77616
G1 X-53.462 Y53.611 E160.81681
G1 X-54.173 Y52.729 E160.87334
G1 X-54.817 Y51.437 E160.94536
G1 X-54.976 Y50.348 E161.00026
G1 X-55 Y-50.329 E166.02306
G1 X-54.718 Y-51.699 E166.09284
G1 X-54.114 Y-52.821 E166.15641
G1 X-53.611 Y-53.462 E166.19706
G1 X-52.729 Y-54.173 E166.25358
G1 X-51.437 Y-54.817 E166.32561
G1 X-50.348 Y-54.976 E166.38051
G1 X-14.671 Y-55 E168.16045
G1 X-13.301 Y-54.718 E168.23023
G1 X-12.179 Y-54.114 E168.2938
G1 X-11.538 Y-53.611 E168.33445
G1 X-10.827 Y-52.729 E168.39097
G1 X-10.183 Y-51.433 E168.46317
G1 X-9.992 Y-50 E168.5353
G1 X10 Y-50 E169.5327
G1 X10.008 Y-50.368 E169.55107
G1 X10.282 Y-51.699 E169.61886
G1 X10.886 Y-52.821 E169.68243
G1 X11.389 Y-53.462 E169.72308
G1 X12.271 Y-54.173 E169.77961
G1 X13.563 Y-54.817 E169.85163
G1 X14.652 Y-54.976 E169.90653
G1 X50.329 Y-55 E171.68647
G1 X51.699 Y-54.718 E171.75625
G1 X52.821 Y-54.114 E171.81982
G1 X53.462 Y-53.611 E171.86047
G1 X54.173 Y-52.729 E171.91699
G1 X54.817 Y-51.437 E171.98901
G1 X54.976 Y-50.348 E172.04392
G1 X55 Y50.329 E177.06672
G1 X54.718 Y51.699 E177.1365
G1 X54.114 Y52.821 E177.20007
G1 X53.611 Y53.462 E177.24072
G1 X52.729 Y54.173 E177.29724
G1 X51.437 Y54.817 E177.36926
G1 X50.348 Y54.976 E177.42417
G1 X14.656 Y55 E179.20485
G1 X13.286 Y54.718 E179.27463
G1 X12.164 Y54.114 E179.33821
G1 X11.523 Y53.611 E179.37886
G1 X10.812 Y52.729 E179.43538
G1 X10.168 Y51.433 E179.50758
G1 X9.977 Y50 E179.5797
G0 F3600 X10.391 Y49.6
G1 F1800 X-10.415 Y49.6 E180.61772
G1 X-10.415 Y50.287 E180.65199
G1 X-10.677 Y51.562 E180.71693
G1 X-11.253 Y52.631 E180.77751
G1 X-11.689 Y53.178 E180.81241
G1 X-12.506 Y53.836 E180.86475
G1 X-13.698 Y54.43 E180.93119
G1 X-14.725 Y54.58 E180.98297
G1 X-50.287 Y54.6 E182.75717
G1 X-51.562 Y54.338 E182.82211
G1 X-52.631 Y53.762 E182.88269
G1 X-53.178 Y53.326 E182.91759
G1 X-53.836 Y52.509 E182.96992
G1 X-54.43 Y51.317 E183.03637
G1 X-54.58 Y50.29 E183.08815
G1 X-54.6 Y-50.287 E188.10596
G1 X-54.338 Y-51.562 E188.17089
G1 X-53.762 Y-52.631 E188.23148
G1 X-53.326 Y-53.178 E188.26638
G1 X-52.509 Y-53.836 E188.31871
G1 X-51.317 Y-54.43 E188.38516
G1 X-50.29 Y-54.58 E188.43694
G1 X-14.713 Y-54.6 E190.21188
G1 X-13.438 Y-54.338 E190.27682
G1 X-12.369 Y-53.762 E190.3374
G1 X-11.822 Y-53.326 E190.3723
G1 X-11.164 Y-52.509 E190.42464
G1 X-10.57 Y-51.314 E190.49121
G1 X-10.408 Y-50.121 E190.55128
G1 X-10.406 Y-49.6 E190.57727
G1 X10.4 Y-49.6 E191.61529
G1 X10.4 Y-50.287 E191.64956
G1 X10.662 Y-51.562 E191.7145
G1 X11.238 Y-52.631 E191.77508
G1 X11.674 Y-53.178 E191.80998
G1 X12.491 Y-53.836 E191.86232
G1 X13.683 Y-54.43 E191.92876
G1 X14.71 Y-54.58 E191.98054
G1 X50.287 Y-54.6 E193.75549
G1 X51.562 Y-54.338 E193.82043
G1 X52.631 Y-53.762 E193.88101
G1 X53.178 Y-53.326 E193.91591
G1 X53.836 Y-52.509 E193.96824
