;FLAVOR:Marlin
;TIME:4534
;Filament used: 8.92691m
;Layer height: 0.4
;MINX:-62.8
;MINY:-52.8
;MINZ:0.3
;MAXX:62.8
;MAXY:52.8
;MAXZ:11.5
;TARGET_MACHINE.NAME:Unknown
;Generated with Cura_SteamEngine 5.6.0
M104 S230
M105
M109 S230
M82 ;absolute extrusion mode
G28 ;Home
G1 Z15.0 F6000 ;Move the platform down 15mm
;Prime the extruder
G92 E0
G1 F200 E3
G92 E0
G92 E0
G92 E0
G1 F1500 E-0.5
;LAYER_COUNT:29
;LAYER:0
M107
G0 F3600 X-7.697 Y47.8 Z0.3
;TYPE:SKIRT
G1 F1500 E0
G1 F1800 X-8.681 Y49.55 E0.10016
G1 X-9.372 Y50.433 E0.1561
G1 X-10.749 Y51.542 E0.24431
G1 X-12.723 Y52.526 E0.35435
G1 X-14.246 Y52.748 E0.43114
G1 X-50.623 Y52.8 E2.24599
G1 X-52.676 Y52.377 E2.35057
G1 X-54.55 Y51.319 E2.45794
G1 X-55.433 Y50.628 E2.51387
G1 X-56.542 Y49.251 E2.60208
G1 X-57.526 Y47.277 E2.71212
G1 X-57.748 Y45.754 E2.78891
G1 X-57.797 Y22.304 E3.95884
G1 X-59.55 Y21.319 E4.05916
G1 X-60.433 Y20.628 E4.11509
G1 X-61.542 Y19.251 E4.2033
G1 X-62.526 Y17.277 E4.31334
G1 X-62.748 Y15.754 E4.39013
G1 X-62.8 Y-15.623 E5.95554
G1 X-62.378 Y-17.672 E6.05991
G1 X-61.357 Y-19.493 E6.16406
G1 X-60.629 Y-20.43 E6.22326
G1 X-59.244 Y-21.544 E6.31194
G1 X-57.8 Y-22.262 E6.39239
G1 X-57.8 Y-45.623 E7.55788
G1 X-57.377 Y-47.676 E7.66245
G1 X-56.319 Y-49.55 E7.76982
G1 X-55.628 Y-50.433 E7.82576
G1 X-54.251 Y-51.542 E7.91397
G1 X-52.277 Y-52.526 E8.02401
G1 X-50.754 Y-52.748 E8.10079
G1 X-14.362 Y-52.8 E9.9164
G1 X-12.313 Y-52.378 E10.02077
G1 X-10.492 Y-51.357 E10.12493
G1 X-9.555 Y-50.629 E10.18412
G1 X-8.441 Y-49.244 E10.2728
G1 X-7.723 Y-47.8 E10.35326
G1 X7.712 Y-47.8 E11.12331
G1 X8.696 Y-49.55 E11.22347
G1 X9.387 Y-50.433 E11.27941
G1 X10.764 Y-51.542 E11.36762
G1 X12.738 Y-52.526 E11.47766
G1 X14.261 Y-52.748 E11.55445
G1 X50.623 Y-52.8 E13.36856
G1 X52.676 Y-52.377 E13.47313
G1 X54.55 Y-51.319 E13.5805
G1 X55.433 Y-50.628 E13.63644
G1 X56.542 Y-49.251 E13.72465
G1 X57.526 Y-47.277 E13.83469
G1 X57.748 Y-45.754 E13.91147
G1 X57.797 Y-22.304 E15.0814
G1 X59.55 Y-21.319 E15.18172
G1 X60.433 Y-20.628 E15.23766
G1 X61.542 Y-19.251 E15.32586
G1 X62.526 Y-17.277 E15.43591
G1 X62.748 Y-15.754 E15.51269
G1 X62.8 Y15.623 E17.0781
G1 X62.378 Y17.672 E17.18247
G1 X61.357 Y19.493 E17.28662
G1 X60.629 Y20.43 E17.34582
G1 X59.244 Y21.544 E17.4345
G1 X57.8 Y22.262 E17.51495
G1 X57.8 Y45.623 E18.68044
G1 X57.377 Y47.676 E18.78502
G1 X56.319 Y49.55 E18.89238
G1 X55.628 Y50.433 E18.94832
G1 X54.251 Y51.542 E19.03653
G1 X52.277 Y52.526 E19.14657
G1 X50.754 Y52.748 E19.22335
G1 X14.377 Y52.8 E21.03821
G1 X12.328 Y52.378 E21.14258
G1 X10.507 Y51.357 E21.24674
G1 X9.57 Y50.629 E21.30594
G1 X8.456 Y49.244 E21.39461
G1 X7.738 Y47.8 E21.47507
G1 X-7.697 Y47.8 E22.24512
G1 F1500 E21.74512
G0 F3600 X-50.653 Y45.653
G0 X-55.653 Y15.653
G0 X-55.653 Y-15.653
G0 X-50.653 Y-45.653
G0 X-7.971 Y-47.4
G1 F1500 E22.24512
G1 F1800 X8.002 Y-47.4 E23.04202
G1 X8.077 Y-47.642 E23.05466
G1 X9.011 Y-49.303 E23.14973
G1 X9.674 Y-50.15 E23.20339
G1 X10.984 Y-51.205 E23.28731
G1 X12.858 Y-52.139 E23.39177
G1 X14.319 Y-52.352 E23.46543
G1 X50.581 Y-52.4 E25.27455
G1 X52.534 Y-51.998 E25.37403
G1 X54.303 Y-51.004 E25.47526
G1 X55.15 Y-50.341 E25.52893
G1 X56.205 Y-49.031 E25.61284
G1 X57.139 Y-47.157 E25.71731
G1 X57.352 Y-45.696 E25.79097
G1 X57.398 Y-22.013 E26.97252
G1 X57.642 Y-21.938 E26.98525
G1 X59.303 Y-21.004 E27.08032
G1 X60.15 Y-20.341 E27.13399
G1 X61.205 Y-19.031 E27.2179
G1 X62.139 Y-17.157 E27.32237
G1 X62.352 Y-15.696 E27.39603
G1 X62.4 Y15.581 E28.95644
G1 X61.998 Y17.532 E29.05582
G1 X61.041 Y19.247 E29.15381
G1 X60.341 Y20.147 E29.21069
G1 X59.025 Y21.207 E29.29499
G1 X57.4 Y22.014 E29.38551
G1 X57.4 Y45.581 E30.56127
G1 X56.998 Y47.534 E30.66075
G1 X56.004 Y49.303 E30.76199
G1 X55.341 Y50.15 E30.81565
G1 X54.031 Y51.205 E30.89957
G1 X52.157 Y52.139 E31.00403
G1 X50.696 Y52.352 E31.07769
G1 X14.419 Y52.4 E32.88756
G1 X12.468 Y51.998 E32.98694
G1 X10.753 Y51.041 E33.08492
G1 X9.853 Y50.341 E33.1418
G1 X8.793 Y49.025 E33.22611
G1 X7.986 Y47.4 E33.31663
G1 X-7.987 Y47.4 E34.11352
G1 X-8.062 Y47.642 E34.12616
G1 X-8.996 Y49.303 E34.22123
G1 X-9.659 Y50.15 E34.2749
G1 X-10.969 Y51.205 E34.35881
G1 X-12.843 Y52.139 E34.46327
G1 X-14.304 Y52.352 E34.53693
G1 X-50.581 Y52.4 E36.3468
G1 X-52.534 Y51.998 E36.44628
G1 X-54.303 Y51.004 E36.54752
G1 X-55.15 Y50.341 E36.60118
G1 X-56.205 Y49.031 E36.68509
G1 X-57.139 Y47.157 E36.78956
G1 X-57.352 Y45.696 E36.86322
G1 X-57.398 Y22.013 E38.04477
G1 X-57.642 Y21.938 E38.0575
G1 X-59.303 Y21.004 E38.15257
G1 X-60.15 Y20.341 E38.20624
G1 X-61.205 Y19.031 E38.29015
G1 X-62.139 Y17.157 E38.39462
G1 X-62.352 Y15.696 E38.46828
G1 X-62.4 Y-15.581 E40.02869
G1 X-61.998 Y-17.532 E40.12807
G1 X-61.041 Y-19.247 E40.22606
G1 X-60.341 Y-20.147 E40.28294
G1 X-59.025 Y-21.207 E40.36724
G1 X-57.4 Y-22.014 E40.45776
G1 X-57.4 Y-45.581 E41.63353
G1 X-56.998 Y-47.534 E41.733
G1 X-56.004 Y-49.303 E41.83424
G1 X-55.341 Y-50.15 E41.8879
G1 X-54.031 Y-51.205 E41.97182
G1 X-52.157 Y-52.139 E42.07628
G1 X-50.696 Y-52.352 E42.14994
G1 X-14.404 Y-52.4 E43.96056
G1 X-12.453 Y-51.998 E44.05994
G1 X-10.738 Y-51.041 E44.15792
G1 X-9.838 Y-50.341 E44.2148
G1 X-8.778 Y-49.025 E44.29911
G1 X-7.971 Y-47.4 E44.38963
G0 F3600 X-8.248 Y-47
G1 F1800 X8.317 Y-47 E45.21606
G1 X8.426 Y-47.447 E45.23901
G1 X9.326 Y-49.056 E45.33099
G1 X9.963 Y-49.869 E45.38252
G1 X11.2 Y-50.866 E45.46178
G1 X12.978 Y-51.752 E45.56089
G1 X14.377 Y-51.956 E45.63142
G1 X50.539 Y-52 E47.43555
G1 X52.394 Y-51.618 E47.53004
G1 X54.056 Y-50.689 E47.62503
G1 X54.869 Y-50.052 E47.67656
G1 X55.866 Y-48.815 E47.75583
G1 X56.752 Y-47.037 E47.85493
G1 X56.956 Y-45.638 E47.92547
G1 X56.999 Y-21.698 E49.11984
G1 X57.447 Y-21.589 E49.14284
G1 X59.056 Y-20.689 E49.23482
G1 X59.869 Y-20.052 E49.28635
G1 X60.866 Y-18.815 E49.36561
G1 X61.752 Y-17.037 E49.46472
G1 X61.956 Y-15.638 E49.53526
G1 X62 Y15.539 E51.09069
G1 X61.618 Y17.391 E51.18503
G1 X60.725 Y19.001 E51.27688
G1 X60.051 Y19.867 E51.33163
G1 X58.809 Y20.868 E51.41121
G1 X57.146 Y21.694 E51.50385
G1 X57 Y21.737 E51.51144
G1 X57 Y45.539 E52.69893
G1 X56.618 Y47.394 E52.79342
G1 X55.689 Y49.056 E52.88841
G1 X55.052 Y49.869 E52.93994
G1 X53.815 Y50.866 E53.0192
G1 X52.037 Y51.752 E53.11831
G1 X50.638 Y51.956 E53.18884
G1 X14.461 Y52 E54.99372
G1 X12.609 Y51.618 E55.08806
G1 X10.999 Y50.725 E55.17992
G1 X10.133 Y50.051 E55.23466
G1 X9.132 Y48.809 E55.31425
G1 X8.306 Y47.146 E55.40689
G1 X8.263 Y47 E55.41448
G1 X-8.302 Y47 E56.24091
G1 X-8.411 Y47.447 E56.26386
G1 X-9.311 Y49.056 E56.35584
G1 X-9.948 Y49.869 E56.40737
G1 X-11.185 Y50.866 E56.48663
G1 X-12.963 Y51.752 E56.58574
G1 X-14.362 Y51.956 E56.65628
G1 X-50.539 Y52 E58.46116
G1 X-52.394 Y51.618 E58.55564
G1 X-54.056 Y50.689 E58.65064
G1 X-54.869 Y50.052 E58.70216
G1 X-55.866 Y48.815 E58.78143
G1 X-56.752 Y47.037 E58.88054
G1 X-56.956 Y45.638 E58.95107
G1 X-56.999 Y21.698 E60.14544
G1 X-57.447 Y21.589 E60.16845
G1 X-59.056 Y20.689 E60.26042
G1 X-59.869 Y20.052 E60.31195
G1 X-60.866 Y18.815 E60.39122
G1 X-61.752 Y17.037 E60.49032
G1 X-61.956 Y15.638 E60.56086
G1 X-62 Y-15.539 E62.11629
G1 X-61.618 Y-17.391 E62.21063
G1 X-60.725 Y-19.001 E62.30248
G1 X-60.051 Y-19.867 E62.35723
G1 X-58.809 Y-20.868 E62.43681
G1 X-57.146 Y-21.694 E62.52945
G1 X-57 Y-21.737 E62.53704
G1 X-57 Y-45.539 E63.72453
G1 X-56.618 Y-47.394 E63.81902
G1 X-55.689 Y-49.056 E63.91401
G1 X-55.052 Y-49.869 E63.96554
G1 X-53.815 Y-50.866 E64.0448
G1 X-52.037 Y-51.752 E64.14391
G1 X-50.638 Y-51.956 E64.21444
G1 X-14.446 Y-52 E66.02007
G1 X-12.594 Y-51.618 E66.11441
G1 X-10.984 Y-50.725 E66.20627
G1 X-10.118 Y-50.051 E66.26101
G1 X-9.117 Y-48.809 E66.3406
G1 X-8.291 Y-47.146 E66.43324
G1 X-8.248 Y-47 E66.44083
G0 F3600 X-8.578 Y-46.6
G1 F1800 X8.645 Y-46.6 E67.30009
G1 X8.776 Y-47.253 E67.33331
G1 X9.641 Y-48.809 E67.42213
G1 X10.252 Y-49.588 E67.47153
G1 X11.417 Y-50.527 E67.54618
G1 X13.098 Y-51.365 E67.63989
G1 X14.435 Y-51.56 E67.70729
G1 X50.497 Y-51.6 E69.50644
G1 X52.253 Y-51.238 E69.59589
G1 X53.809 Y-50.374 E69.68468
G1 X54.588 Y-49.763 E69.73407
G1 X55.527 Y-48.598 E69.80872
G1 X56.365 Y-46.917 E69.90243
G1 X56.56 Y-45.58 E69.96984
G1 X56.6 Y-21.37 E71.17768
G1 X57.253 Y-21.239 E71.21091
G1 X58.809 Y-20.374 E71.29973
G1 X59.588 Y-19.763 E71.34912
G1 X60.527 Y-18.598 E71.42377
G1 X61.365 Y-16.917 E71.51748
G1 X61.56 Y-15.58 E71.58489
G1 X61.6 Y15.497 E73.13533
G1 X61.238 Y17.252 E73.22473
G1 X60.409 Y18.755 E73.31037
G1 X59.761 Y19.587 E73.36298
G1 X58.593 Y20.529 E73.43784
G1 X56.968 Y21.336 E73.52836
G1 X56.6 Y21.407 E73.54706
G1 X56.6 Y45.497 E74.74891
G1 X56.238 Y47.253 E74.83836
G1 X55.374 Y48.809 E74.92716
G1 X54.763 Y49.588 E74.97655
G1 X53.598 Y50.527 E75.0512
G1 X51.917 Y51.365 E75.14491
G1 X50.58 Y51.56 E75.21232
G1 X14.503 Y51.6 E77.01221
G1 X12.748 Y51.238 E77.10161
G1 X11.245 Y50.409 E77.18724
G1 X10.413 Y49.761 E77.23986
G1 X9.471 Y48.593 E77.31472
G1 X8.664 Y46.968 E77.40524
G1 X8.593 Y46.6 E77.42393
G1 X-8.63 Y46.6 E78.28319
G1 X-8.761 Y47.253 E78.31642
G1 X-9.626 Y48.809 E78.40524
G1 X-10.237 Y49.588 E78.45463
G1 X-11.402 Y50.527 E78.52928
G1 X-13.083 Y51.365 E78.62299
G1 X-14.42 Y51.56 E78.6904
G1 X-50.497 Y51.6 E80.49029
G1 X-52.253 Y51.238 E80.57974
G1 X-53.809 Y50.374 E80.66853
G1 X-54.588 Y49.763 E80.71793
G1 X-55.527 Y48.598 E80.79258
G1 X-56.365 Y46.917 E80.88629
G1 X-56.56 Y45.58 E80.95369
G1 X-56.6 Y21.37 E82.16154
G1 X-57.253 Y21.239 E82.19477
G1 X-58.809 Y20.374 E82.28358
G1 X-59.588 Y19.763 E82.33298
G1 X-60.527 Y18.598 E82.40763
G1 X-61.365 Y16.917 E82.50134
G1 X-61.56 Y15.58 E82.56875
G1 X-61.6 Y-15.497 E84.11918
G1 X-61.238 Y-17.252 E84.20858
G1 X-60.409 Y-18.755 E84.29422
G1 X-59.761 Y-19.587 E84.34683
G1 X-58.593 Y-20.529 E84.42169
G1 X-56.968 Y-21.336 E84.51221
G1 X-56.6 Y-21.407 E84.53091
G1 X-56.6 Y-45.497 E85.73277
G1 X-56.238 Y-47.253 E85.82222
G1 X-55.374 Y-48.809 E85.91101
G1 X-54.763 Y-49.588 E85.9604
G1 X-53.598 Y-50.527 E86.03505
G1 X-51.917 Y-51.365 E86.12876
G1 X-50.58 Y-51.56 E86.19617
G1 X-14.488 Y-51.6 E87.99681
G1 X-12.733 Y-51.238 E88.08621
G1 X-11.23 Y-50.409 E88.17184
G1 X-10.398 Y-49.761 E88.22446
G1 X-9.456 Y-48.593 E88.29932
G1 X-8.649 Y-46.968 E88.38984
G1 X-8.578 Y-46.6 E88.40854
G0 F3600 X-8.928 Y-46.2
G1 F1800 X8.972 Y-46.2 E89.30157
G1 X9.156 Y-47.114 E89.34808
G1 X9.956 Y-48.562 E89.43062
G1 X10.538 Y-49.305 E89.4777
G1 X11.637 Y-50.19 E89.5481
G1 X13.218 Y-50.978 E89.63623
G1 X14.493 Y-51.164 E89.70052
G1 X50.455 Y-51.2 E91.49467
G1 X52.114 Y-50.858 E91.57918
G1 X53.562 Y-50.059 E91.66169
G1 X54.305 Y-49.477 E91.70877
G1 X55.19 Y-48.378 E91.77917
G1 X55.978 Y-46.797 E91.8673
G1 X56.164 Y-45.522 E91.93158
G1 X56.2 Y-21.043 E93.15285
G1 X57.114 Y-20.859 E93.19936
G1 X58.562 Y-20.059 E93.28189
G1 X59.305 Y-19.477 E93.32898
G1 X60.19 Y-18.378 E93.39938
G1 X60.978 Y-16.797 E93.48751
G1 X61.164 Y-15.522 E93.55179
G1 X61.2 Y15.455 E95.09724
G1 X60.858 Y17.114 E95.18175
G1 X60.059 Y18.562 E95.26426
G1 X59.475 Y19.305 E95.31141
G1 X58.377 Y20.19 E95.38177
G1 X56.79 Y20.978 E95.47017
G1 X56.2 Y21.057 E95.49986
G1 X56.2 Y45.455 E96.71708
G1 X55.858 Y47.114 E96.80159
G1 X55.059 Y48.562 E96.8841
G1 X54.477 Y49.305 E96.93119
G1 X53.378 Y50.19 E97.00159
G1 X51.797 Y50.978 E97.08972
G1 X50.522 Y51.164 E97.154
G1 X14.545 Y51.2 E98.9489
G1 X12.886 Y50.858 E99.03341
G1 X11.438 Y50.059 E99.11592
G1 X10.695 Y49.475 E99.16307
G1 X9.81 Y48.377 E99.23342
G1 X9.022 Y46.79 E99.32182
G1 X8.943 Y46.2 E99.35152
G1 X-8.957 Y46.2 E100.24456
G1 X-9.141 Y47.114 E100.29107
G1 X-9.941 Y48.562 E100.3736
G1 X-10.523 Y49.305 E100.42069
G1 X-11.622 Y50.19 E100.49109
G1 X-13.203 Y50.978 E100.57922
G1 X-14.478 Y51.164 E100.6435
G1 X-50.455 Y51.2 E102.4384
G1 X-52.114 Y50.858 E102.52291
G1 X-53.562 Y50.059 E102.60542
G1 X-54.305 Y49.477 E102.65251
G1 X-55.19 Y48.378 E102.7229
G1 X-55.978 Y46.797 E102.81103
G1 X-56.164 Y45.522 E102.87532
G1 X-56.2 Y21.043 E104.09658
G1 X-57.114 Y20.859 E104.14309
G1 X-58.562 Y20.059 E104.22563
G1 X-59.305 Y19.477 E104.27271
G1 X-60.19 Y18.378 E104.34311
G1 X-60.978 Y16.797 E104.43124
G1 X-61.164 Y15.522 E104.49553
G1 X-61.2 Y-15.455 E106.04098
G1 X-60.858 Y-17.114 E106.12548
G1 X-60.059 Y-18.562 E106.20799
G1 X-59.475 Y-19.305 E106.25514
G1 X-58.377 Y-20.19 E106.3255
G1 X-56.79 Y-20.978 E106.4139
G1 X-56.2 Y-21.057 E106.4436
G1 X-56.2 Y-45.455 E107.66082
G1 X-55.858 Y-47.114 E107.74533
G1 X-55.059 Y-48.562 E107.82783
G1 X-54.477 Y-49.305 E107.87492
G1 X-53.378 Y-50.19 E107.94532
G1 X-51.797 Y-50.978 E108.03345
G1 X-50.522 Y-51.164 E108.09773
G1 X-14.53 Y-51.2 E109.89338
G1 X-12.871 Y-50.858 E109.97789
G1 X-11.423 Y-50.059 E110.0604
G1 X-10.68 Y-49.475 E110.10755
G1 X-9.795 Y-48.377 E110.17791
G1 X-9.007 Y-46.79 E110.2663
G1 X-8.928 Y-46.2 E110.296
G0 F3600 X-9.277 Y-45.8
G1 F1800 X9.299 Y-45.8 E111.22276
G1 X9.536 Y-46.974 E111.28252
G1 X10.271 Y-48.315 E111.35881
G1 X10.827 Y-49.024 E111.40376
G1 X11.853 Y-49.851 E111.46951
G1 X13.338 Y-50.591 E111.55228
G1 X14.551 Y-50.768 E111.61344
G1 X50.413 Y-50.8 E113.4026
G1 X51.974 Y-50.478 E113.48212
G1 X53.315 Y-49.744 E113.55839
G1 X54.024 Y-49.188 E113.60334
G1 X54.851 Y-48.162 E113.66909
G1 X55.591 Y-46.677 E113.75186
G1 X55.768 Y-45.464 E113.81302
G1 X55.8 Y-20.716 E115.0477
G1 X56.974 Y-20.479 E115.10746
G1 X58.315 Y-19.744 E115.18375
G1 X59.024 Y-19.188 E115.2287
G1 X59.851 Y-18.162 E115.29445
G1 X60.591 Y-16.677 E115.37722
G1 X60.768 Y-15.464 E115.43838
G1 X60.8 Y15.413 E116.97884
G1 X60.478 Y16.974 E117.05836
G1 X59.744 Y18.315 E117.13463
G1 X59.187 Y19.024 E117.17961
G1 X58.161 Y19.851 E117.24536
G1 X56.671 Y20.591 E117.32836
G1 X55.8 Y20.708 E117.3722
G1 X55.8 Y45.413 E118.60474
G1 X55.478 Y46.974 E118.68426
G1 X54.744 Y48.315 E118.76052
G1 X54.188 Y49.024 E118.80548
G1 X53.162 Y49.851 E118.87122
G1 X51.677 Y50.591 E118.954
G1 X50.464 Y50.768 E119.01516
G1 X14.587 Y50.8 E120.80507
G1 X13.026 Y50.478 E120.88459
G1 X11.685 Y49.744 E120.96085
G1 X10.976 Y49.187 E121.00584
G1 X10.149 Y48.161 E121.07158
G1 X9.409 Y46.671 E121.15458
G1 X9.292 Y45.8 E121.19843
G1 X-9.284 Y45.8 E122.12519
G1 X-9.521 Y46.974 E122.18494
G1 X-10.256 Y48.315 E122.26123
G1 X-10.812 Y49.024 E122.30618
G1 X-11.838 Y49.851 E122.37193
G1 X-13.323 Y50.591 E122.4547
G1 X-14.536 Y50.768 E122.51586
G1 X-50.413 Y50.8 E124.30577
G1 X-51.974 Y50.478 E124.38529
G1 X-53.315 Y49.744 E124.46156
G1 X-54.024 Y49.188 E124.50651
G1 X-54.851 Y48.162 E124.57226
G1 X-55.591 Y46.677 E124.65503
G1 X-55.768 Y45.464 E124.71619
G1 X-55.8 Y20.716 E125.95088
G1 X-56.974 Y20.479 E126.01063
G1 X-58.315 Y19.744 E126.08692
G1 X-59.024 Y19.188 E126.13187
G1 X-59.851 Y18.162 E126.19762
G1 X-60.591 Y16.677 E126.28039
G1 X-60.768 Y15.464 E126.34155
G1 X-60.8 Y-15.413 E127.88201
G1 X-60.478 Y-16.974 E127.96153
G1 X-59.744 Y-18.315 E128.0378
G1 X-59.187 Y-19.024 E128.08278
G1 X-58.161 Y-19.851 E128.14853
G1 X-56.671 Y-20.591 E128.23153
G1 X-55.8 Y-20.708 E128.27537
G1 X-55.8 Y-45.413 E129.50791
G1 X-55.478 Y-46.974 E129.58743
G1 X-54.744 Y-48.315 E129.6637
G1 X-54.188 Y-49.024 E129.70865
G1 X-53.162 Y-49.851 E129.77439
G1 X-51.677 Y-50.591 E129.85717
G1 X-50.464 Y-50.768 E129.91833
G1 X-14.572 Y-50.8 E131.70899
G1 X-13.011 Y-50.478 E131.78851
G1 X-11.67 Y-49.744 E131.86477
G1 X-10.961 Y-49.187 E131.90976
G1 X-10.134 Y-48.161 E131.9755
G1 X-9.394 Y-46.671 E132.0585
G1 X-9.277 Y-45.8 E132.10235
G1 F1500 E131.60235
G0 F3600 X-50.653 Y-45.653
G0 X-55.653 Y-15.653
G0 X-55.653 Y15.653
G0 X-50.653 Y45.653
G0 X-14.347 Y45.653
G0 X-9.611 Y45.4
G1 F1500 E132.10235
G1 F1800 X-9.901 Y46.836 E132.17543
G1 X-10.571 Y48.068 E132.2454
